X:4018
L:1/16
M:2/4
K:G
 G2 (3BAG dG (3BAG | dG gG fG eG | G2 (3BAG dG (3BAG | FDAD BDAD | G2 (3BAG dG (3BAG | 
 dG gG fG eG | d^cdB dgdB | AGAB G4 :: D2 (3FED AD (3FED | cDBD ADGD | G2 (3BAG dG (3BAG | 
 dGgG fGeG | d^cdB gfge | d^cdB gfge | dBgf edcB | AGFE DEFD :|

